svgs/sharp-light/code-commit.svg

<svg xmlns="http://www.w3.org/2000/svg" viewBox="0 0 640 512"><!--! Font Awesome Pro 6.6.0 by @fontawesome - https://fontawesome.com License - https://fontawesome.com/license (Commercial License) Copyright 2024 Fonticons, Inc. --><path d="M224 160l0 80 0 32 0 80 192 0 0-80 0-32 0-80-192 0zm-32 80l0-80 0-32 32 0 192 0 32 0 0 32 0 80 176 0 16 0 0 32-16 0-176 0 0 80 0 32-32 0-192 0-32 0 0-32 0-80L16 272 0 272l0-32 16 0 176 0z"/></svg>

<svg xmlns="http://www.w3.org/2000/svg" viewBox="0 0 640 512"><!--! Font Awesome Pro 6.4.2 by @fontawesome - https://fontawesome.com License - https://fontawesome.com/license (Commercial License) Copyright 2023 Fonticons, Inc. --><path d="M224 160v80 32 80H416V272 240 160H224zm-32 80V160 128h32H416h32v32 80H624h16v32H624 448v80 32H416 224 192V352 272H16 0V240H16 192z"/></svg>
